icons/svg/barrier_colored/rapids.svg

<svg width="48" height="48" fill="none" version="1.1" viewBox="0 0 580 580" xmlns="http://www.w3.org/2000/svg">
 <g fill="white">
  <path d="m471.04 138.56c22.545 0.485 43.576 15.118 65.313 15 0.21-5e-3 0.415-0.024 0.625-0.032v43.625c-22.241-0.135-43.757-15.473-66.938-15-23.448 0.641-48.815 16.914-71.781 18.032-22.658 0.618-46.539-13.629-63.156-13.75-16.225-0.134-24.836 10.48-34.531 12.968-9.543 2.317-16.85 2.82-22.563 1.25l-0.125-30.718c-3.844 2.022-22.082 3.994 9.781-15.219 13.969-9.876 30.052-12.11 46.282-11.813 16.618 0.121 40.435 14.369 63.093 13.75 22.966-1.118 48.364-17.453 71.813-18.093 0.73-0.015 1.46-0.016 2.187 0z" clip-rule="evenodd" fill-rule="evenodd"/>
  <path d="m303.23 203.26c-5.483 17.669-1.734 42.621-8.427 62.462-7.278 19.49-11.449 27.605-18.709 47.597-0.388 1.09-8.179 19.818-8.475 20.924-29.041-0.222-57.051 23.614-40.493-25.113 7.26-19.992 18.905-37.183 26.183-56.673 6.694-19.842-2.394-42.66 3.088-60.327 9.258-32.801 33.098-33.914 41.395-35.836 32.816-7.604 56.313-17.883 39.032 16.181-3.89 7.667-17.651 13.147-33.594 30.785z" clip-rule="evenodd" fill-rule="evenodd"/>
  <path d="m435.51 233.88c20.671-0.032 74.867 0.704 101.47 1.437v241.31h-237.43c15.672-245.58 7.697-269.55 135.96-242.75z" stroke="white" stroke-linecap="round" stroke-linejoin="round" stroke-width="11.04"/>
  <path d="m205.04 320.03c21.165 0.472 41.702 12.294 61.563 11.594 0.81-0.038 1.573-0.076 2.375-0.156v43.719c-0.404 0.028-0.814 0.045-1.219 0.062-21.163 0.746-43.006-12.623-65.656-11.594-22.338 0.937-44.711 16.768-67.532 17.313-22.438 0.118-44.063-15.474-67.437-15-10.924 0.261-22.269 3.987-33.594 8v-44.031c10.917-3.818 21.847-7.276 32.375-7.563 23.374-0.472 45.062 15.181 67.5 15.063 22.821-0.543 45.163-16.375 67.5-17.313 0.708-0.037 1.388-0.084 2.094-0.094 0.684-9e-3 1.348-0.015 2.031 0z" clip-rule="evenodd" fill-rule="evenodd"/>
  <path d="m197.39 408.44c21.891-0.295 43.092 12.348 63.594 11.625 0.81-0.038 1.604-0.107 2.406-0.187v43.719c-0.403 0.028-0.813 0.076-1.219 0.093-21.162 0.746-43.037-12.654-65.687-11.625-22.338 0.937-44.679 16.768-67.5 17.313-22.438 0.118-44.095-15.474-67.469-15-9.1154 0.218-18.524 2.865-27.969 6.062v-44c9.0369-2.991 18.026-5.418 26.75-5.656 23.374-0.472 45.062 15.181 67.5 15.063 22.821-0.543 45.163-16.375 67.5-17.313 0.708-0.037 1.388-0.084 2.094-0.094z" clip-rule="evenodd" fill-rule="evenodd"/>
 </g>
</svg>

<svg width="48" height="48" viewBox="0 0 580 580" fill="none" xmlns="http://www.w3.org/2000/svg">
<path fill-rule="evenodd" clip-rule="evenodd" d="M471.042 138.563C493.587 139.048 514.618 153.681 536.355 153.563C536.565 153.558 536.77 153.539 536.98 153.531V197.156C514.739 197.021 493.223 181.683 470.042 182.156C446.594 182.797 421.227 199.07 398.261 200.188C375.603 200.806 351.722 186.559 335.105 186.438C318.88 186.304 310.269 196.918 300.574 199.406C291.031 201.723 283.724 202.226 278.011 200.656L277.886 169.938C274.042 171.96 255.804 173.932 287.667 154.719C301.636 144.843 317.719 142.609 333.949 142.906C350.567 143.027 374.384 157.275 397.042 156.656C420.008 155.538 445.406 139.203 468.855 138.563C469.585 138.548 470.315 138.547 471.042 138.563V138.563Z" fill="white" />
<path fill-rule="evenodd" clip-rule="evenodd" d="M303.229 203.263C297.746 220.932 301.495 245.884 294.802 265.725C287.524 285.215 283.353 293.33 276.093 313.322C275.705 314.412 267.914 333.14 267.618 334.246C238.577 334.024 210.567 357.86 227.125 309.133C234.385 289.141 246.03 271.95 253.308 252.46C260.002 232.618 250.914 209.8 256.396 192.133C265.654 159.332 289.494 158.219 297.791 156.297C330.607 148.693 354.104 138.414 336.823 172.478C332.933 180.145 319.172 185.625 303.229 203.263Z" fill="white" />
<path opacity="0.75" d="M435.511 233.875C456.182 233.843 510.378 234.579 536.98 235.312V476.625H299.548C315.22 231.041 307.245 207.074 435.511 233.875Z" fill="white" stroke="white" stroke-width="11.0405" stroke-linecap="round" stroke-linejoin="round" />
<path fill-rule="evenodd" clip-rule="evenodd" d="M205.042 320.031C226.207 320.503 246.744 332.325 266.605 331.625C267.415 331.587 268.178 331.549 268.98 331.469V375.188C268.576 375.216 268.166 375.233 267.761 375.25C246.598 375.996 224.755 362.627 202.105 363.656C179.767 364.593 157.394 380.424 134.573 380.969C112.135 381.087 90.5104 365.495 67.136 365.969C56.2122 366.23 44.8668 369.956 33.5422 373.969V329.938C44.4592 326.12 55.3889 322.662 65.9172 322.375C89.2917 321.903 110.979 337.556 133.417 337.438C156.238 336.895 178.58 321.063 200.917 320.125C201.625 320.088 202.305 320.041 203.011 320.031C203.695 320.022 204.359 320.016 205.042 320.031V320.031Z" fill="white" />
<path fill-rule="evenodd" clip-rule="evenodd" d="M197.386 408.437C219.277 408.142 240.478 420.785 260.98 420.062C261.79 420.024 262.584 419.955 263.386 419.875V463.594C262.983 463.622 262.573 463.67 262.167 463.687C241.005 464.433 219.13 451.033 196.48 452.062C174.142 452.999 151.801 468.83 128.98 469.375C106.542 469.493 84.8854 453.901 61.511 454.375C52.3956 454.593 42.9875 457.24 33.5422 460.437V416.437C42.5791 413.446 51.5687 411.019 60.2922 410.781C83.6667 410.309 105.354 425.962 127.792 425.844C150.613 425.301 172.955 409.469 195.292 408.531C196 408.494 196.68 408.447 197.386 408.437Z" fill="white" />
</svg>
